icons/fill-new-container-shopping-cart-1.svg

<svg xmlns="http://www.w3.org/2000/svg" width="32px" height="32px" viewBox="0 0 32 32" version="1.1">
    <title>fill-new-container-shopping-cart-1</title>
    <g id="fill-new-container-shopping-cart-1" stroke-width="1" fill-rule="evenodd">
        <path d="M29,4 C29.6505712,4 30.1279292,4.6113889 29.9701425,5.24253563 L26.4701425,19.2425356 C26.3588507,19.6877026 25.9588676,20 25.5,20 L8,20 L8,22 L27,22 C27.5128358,22 27.9355072,22.3860402 27.9932723,22.8833789 L28,23 C28,23.5522847 27.5522847,24 27,24 L7,24 C6.44771525,24 6,23.5522847 6,23 L6,6 L3,6 C2.48716416,6 2.06449284,5.61395981 2.00672773,5.11662113 L2,5 C2,4.44771525 2.44771525,4 3,4 L29,4 Z M11.5,29 C12.3284271,29 13,28.3284271 13,27.5 C13,26.6715729 12.3284271,26 11.5,26 C10.6715729,26 10,26.6715729 10,27.5 C10,28.3284271 10.6715729,29 11.5,29 Z M21.5,29 C22.3284271,29 23,28.3284271 23,27.5 C23,26.6715729 22.3284271,26 21.5,26 C20.6715729,26 20,26.6715729 20,27.5 C20,28.3284271 20.6715729,29 21.5,29 Z" id="&#24418;&#29366;" fill-rule="nonzero" />
    </g>
</svg>

<svg xmlns="http://www.w3.org/2000/svg" viewBox="0 0 32 32"><path fill="currentColor" d="M29 4a1 1 0 0 1 .97 1.243l-3.5 14a1 1 0 0 1-.97.757H8v2h19a1 1 0 0 1 .993.883L28 23a1 1 0 0 1-1 1H7a1 1 0 0 1-1-1V6H3a1 1 0 0 1-.993-.883L2 5a1 1 0 0 1 1-1zM11.5 29a1.5 1.5 0 1 0 0-3 1.5 1.5 0 0 0 0 3m10 0a1.5 1.5 0 1 0 0-3 1.5 1.5 0 0 0 0 3"/></svg>
